src/icons/solid/communication/email.svg

<svg width="24" height="24" viewBox="0 0 24 24" fill="none" xmlns="http://www.w3.org/2000/svg">
<g clip-path="url(#clip0_4549_500)">
<path d="M22.9697 5.62988C22.9897 5.7398 23 5.84983 23 5.96973V18.0303C22.9999 19.1201 22.1204 19.9999 21.041 20H2.95898C1.87962 19.9999 1.00014 19.1201 1 18.0303V5.9502L9.18652 12.9199C9.95611 13.5698 10.8754 13.9003 11.7949 13.9004C12.7145 13.9004 13.6346 13.5799 14.4043 12.9199H14.4141L22.9697 5.62988Z" fill="#3C3B44"/>
<path d="M21.041 4C21.4507 4.00003 21.8306 4.12971 22.1504 4.34961C22.1343 4.35767 22.1176 4.36566 22.1006 4.37305C22.0545 4.39312 22.0072 4.41373 21.9707 4.4502L13.4141 11.7305C12.4546 12.54 11.1254 12.5401 10.166 11.7305L10.1758 11.7402L1.67969 4.5C2.0195 4.19003 2.46925 4.00003 2.95898 4H21.041Z" fill="#3C3B44"/>
</g>
<defs>
<clipPath id="clip0_4549_500">
<rect width="24" height="24" fill="white"/>
</clipPath>
</defs>
</svg>

<svg xmlns="http://www.w3.org/2000/svg" width="24" height="24" fill="none" viewBox="0 0 24 24"><g fill="currentColor" clip-path="url(#a)"><path d="M22.97 5.63c.02.11.03.22.03.34v12.06c0 1.09-.88 1.97-1.959 1.97H2.959C1.879 20 1 19.12 1 18.03V5.95l8.187 6.97c.77.65 1.688.98 2.608.98s1.84-.32 2.61-.98h.01z"/><path d="M21.041 4c.41 0 .79.13 1.11.35l-.05.023a.4.4 0 0 0-.13.077l-8.557 7.28c-.96.81-2.289.81-3.248 0l.01.01L1.68 4.5c.34-.31.79-.5 1.279-.5z"/></g><defs><clipPath id="a"><path fill="currentColor" d="M0 0h24v24H0z"/></clipPath></defs></svg>
